source/img/menu-svg.svg

<svg xmlns="http://www.w3.org/2000/svg" width="19.958" height="14"><path fill="#231F20" d="M0 0h19.958v2H0zm0 6h19.958v2H0zm0 6h19.958v2H0z"/></svg>

<svg xmlns="http://www.w3.org/2000/svg" width="19.958" height="14" viewBox="0 0 19.958 14">
    <path fill="#231F20" d="M0 0H19.958V2H0zM0 6H19.958V8H0zM0 12H19.958V14H0z"/>
</svg>
